svg/color/dia.svg

<svg viewBox="0 0 56 80" fill="none" xmlns="http://www.w3.org/2000/svg">
<path d="M0.00754441 7.68741L11.3959 0.203125V60.3488C22.5507 59.6704 39.3056 56.4596 41.009 39.9761C41.009 39.9761 43.6244 50.0908 37.6249 58.1932C31.2335 66.8306 16.3705 72.6944 0 72.6944V7.68741H0.00754441Z" fill="url(#paint0_linear_1495_170171)"/>
<path d="M22.8524 14.2305V24.2472C27.4952 25.521 38.1602 29.6136 41.0319 40.0524C41.0319 40.0524 41.0619 40.2107 41.1222 40.5121C41.1373 40.5951 41.1449 40.6704 41.1599 40.7533C41.6197 43.1501 42.6749 51.2751 37.6326 58.1941C31.4146 66.726 16.1747 72.6953 0.0078125 72.6953L14.0643 78.8456C14.0643 78.8456 44.0466 78.4009 53.1739 52.0288C54.0256 49.5717 54.4855 47.1824 54.5684 44.8686C53.7468 26.2445 38.4541 15.9263 22.8524 14.238V14.2305Z" fill="url(#paint1_linear_1495_170171)"/>
<path d="M48.0712 15.1416C41.6722 6.72267 27.4273 0.203125 11.396 0.203125V60.3488C13.4159 60.2282 15.6846 60.0096 18.0135 59.6478C19.0989 59.4745 20.1993 59.2785 21.2771 59.0298C21.7897 58.9092 22.3548 58.781 22.8598 58.6454V14.2371C38.4615 15.9254 53.8597 26.2964 54.5758 44.9958C54.5758 44.9958 58.2839 28.5575 48.0787 15.1416H48.0712Z" fill="url(#paint2_linear_1495_170171)"/>
<defs>
<linearGradient id="paint0_linear_1495_170171" x1="-16.0313" y1="27.0124" x2="48.0712" y2="54.8316" gradientUnits="userSpaceOnUse">
<stop offset="0.02" stop-color="#1D39BE" stop-opacity="0.8"/>
<stop offset="0.14" stop-color="#1D39BE" stop-opacity="0.76"/>
<stop offset="0.32" stop-color="#1D39BE" stop-opacity="0.65"/>
<stop offset="0.55" stop-color="#1D39BE" stop-opacity="0.46"/>
<stop offset="0.61" stop-color="#1D39BE" stop-opacity="0.4"/>
<stop offset="0.8" stop-color="#1D39BE" stop-opacity="0.28"/>
<stop offset="0.96" stop-color="#1D39BE" stop-opacity="0.2"/>
</linearGradient>
<linearGradient id="paint1_linear_1495_170171" x1="45.0002" y1="23" x2="12.6021" y2="71.9868" gradientUnits="userSpaceOnUse">
<stop stop-color="#1D39BE" stop-opacity="0.2"/>
<stop offset="0.05" stop-color="#1D39BE" stop-opacity="0.29"/>
<stop offset="0.18" stop-color="#1D39BE" stop-opacity="0.48"/>
<stop offset="0.3" stop-color="#1D39BE" stop-opacity="0.63"/>
<stop offset="0.44" stop-color="#1D39BE" stop-opacity="0.75"/>
<stop offset="0.59" stop-color="#1D39BE" stop-opacity="0.83"/>
<stop offset="0.76" stop-color="#1D39BE" stop-opacity="0.88"/>
<stop offset="0.98" stop-color="#1D39BE" stop-opacity="0.9"/>
</linearGradient>
<linearGradient id="paint2_linear_1495_170171" x1="-4.99708" y1="37.4738" x2="51.772" y2="16.8148" gradientUnits="userSpaceOnUse">
<stop offset="0.21" stop-color="#1D39BE"/>
<stop offset="0.34" stop-color="#1D39BE" stop-opacity="0.98"/>
<stop offset="0.47" stop-color="#1D39BE" stop-opacity="0.92"/>
<stop offset="0.6" stop-color="#1D39BE" stop-opacity="0.82"/>
<stop offset="0.72" stop-color="#1D39BE" stop-opacity="0.68"/>
<stop offset="0.83" stop-color="#1D39BE" stop-opacity="0.51"/>
<stop offset="0.95" stop-color="#1D39BE" stop-opacity="0.3"/>
</linearGradient>
</defs>
</svg>

<svg xmlns="http://www.w3.org/2000/svg" fill="none" viewBox="0 0 56 80"><path fill="url(#dia_svg-a)" d="M.008 7.687 11.396.203V60.35c11.155-.679 27.91-3.89 29.613-20.373 0 0 2.615 10.115-3.384 18.217-6.392 8.637-21.255 14.5-37.625 14.5V7.687z"/><path fill="url(#dia_svg-b)" d="M22.852 14.23v10.017c4.643 1.274 15.308 5.367 18.18 15.805 0 0 .03.159.09.46.015.083.023.158.038.241.46 2.397 1.515 10.522-3.527 17.441C31.415 66.726 16.175 72.695.008 72.695l14.056 6.15s29.983-.444 39.11-26.816c.852-2.457 1.312-4.847 1.394-7.16-.821-18.624-16.114-28.943-31.716-30.631z"/><path fill="url(#dia_svg-c)" d="M48.071 15.142C41.672 6.722 27.427.203 11.396.203V60.35a71 71 0 0 0 6.618-.701 49 49 0 0 0 3.263-.618c.513-.12 1.078-.249 1.583-.385V14.237c15.602 1.688 31 12.06 31.716 30.759 0 0 3.708-16.438-6.497-29.854z"/><defs><linearGradient id="dia_svg-a" x1="-16.031" x2="48.071" y1="27.012" y2="54.832" gradientUnits="userSpaceOnUse"><stop offset=".02" stop-color="#1D39BE" stop-opacity=".8"/><stop offset=".14" stop-color="#1D39BE" stop-opacity=".76"/><stop offset=".32" stop-color="#1D39BE" stop-opacity=".65"/><stop offset=".55" stop-color="#1D39BE" stop-opacity=".46"/><stop offset=".61" stop-color="#1D39BE" stop-opacity=".4"/><stop offset=".8" stop-color="#1D39BE" stop-opacity=".28"/><stop offset=".96" stop-color="#1D39BE" stop-opacity=".2"/></linearGradient><linearGradient id="dia_svg-b" x1="45" x2="12.602" y1="23" y2="71.987" gradientUnits="userSpaceOnUse"><stop stop-color="#1D39BE" stop-opacity=".2"/><stop offset=".05" stop-color="#1D39BE" stop-opacity=".29"/><stop offset=".18" stop-color="#1D39BE" stop-opacity=".48"/><stop offset=".3" stop-color="#1D39BE" stop-opacity=".63"/><stop offset=".44" stop-color="#1D39BE" stop-opacity=".75"/><stop offset=".59" stop-color="#1D39BE" stop-opacity=".83"/><stop offset=".76" stop-color="#1D39BE" stop-opacity=".88"/><stop offset=".98" stop-color="#1D39BE" stop-opacity=".9"/></linearGradient><linearGradient id="dia_svg-c" x1="-4.997" x2="51.772" y1="37.474" y2="16.815" gradientUnits="userSpaceOnUse"><stop offset=".21" stop-color="#1D39BE"/><stop offset=".34" stop-color="#1D39BE" stop-opacity=".98"/><stop offset=".47" stop-color="#1D39BE" stop-opacity=".92"/><stop offset=".6" stop-color="#1D39BE" stop-opacity=".82"/><stop offset=".72" stop-color="#1D39BE" stop-opacity=".68"/><stop offset=".83" stop-color="#1D39BE" stop-opacity=".51"/><stop offset=".95" stop-color="#1D39BE" stop-opacity=".3"/></linearGradient></defs></svg>
